tests/fixtures/warm_8.cube
# synthetic fixture for atx-core lut op tests (hand-written, no third-party data)
TITLE "warm look 8"
DOMAIN_MIN 0.0 0.0 0.0
DOMAIN_MAX 1.0 1.0 1.0
LUT_3D_SIZE 8

0.000000 0.000000 0.000000
0.157143 0.000000 0.000000
0.314286 0.000000 0.000000
0.471429 0.000000 0.000000
0.628571 0.000000 0.000000
0.785714 0.000000 0.000000
0.942857 0.000000 0.000000
1.000000 0.000000 0.000000
0.000000 0.142857 0.000000
0.157143 0.142857 0.000000
0.314286 0.142857 0.000000
0.471429 0.142857 0.000000
0.628571 0.142857 0.000000
0.785714 0.142857 0.000000
0.942857 0.142857 0.000000
1.000000 0.142857 0.000000
0.000000 0.285714 0.000000
0.157143 0.285714 0.000000
0.314286 0.285714 0.000000
0.471429 0.285714 0.000000
0.628571 0.285714 0.000000
0.785714 0.285714 0.000000
0.942857 0.285714 0.000000
1.000000 0.285714 0.000000
0.000000 0.428571 0.000000
0.157143 0.428571 0.000000
0.314286 0.428571 0.000000
0.471429 0.428571 0.000000
0.628571 0.428571 0.000000
0.785714 0.428571 0.000000
0.942857 0.428571 0.000000
1.000000 0.428571 0.000000
0.000000 0.571429 0.000000
0.157143 0.571429 0.000000
0.314286 0.571429 0.000000
0.471429 0.571429 0.000000
0.628571 0.571429 0.000000
0.785714 0.571429 0.000000
0.942857 0.571429 0.000000
1.000000 0.571429 0.000000
0.000000 0.714286 0.000000
0.157143 0.714286 0.000000
0.314286 0.714286 0.000000
0.471429 0.714286 0.000000
0.628571 0.714286 0.000000
0.785714 0.714286 0.000000
0.942857 0.714286 0.000000
1.000000 0.714286 0.000000
0.000000 0.857143 0.000000
0.157143 0.857143 0.000000
0.314286 0.857143 0.000000
0.471429 0.857143 0.000000
0.628571 0.857143 0.000000
0.785714 0.857143 0.000000
0.942857 0.857143 0.000000
1.000000 0.857143 0.000000
0.000000 1.000000 0.000000
0.157143 1.000000 0.000000
0.314286 1.000000 0.000000
0.471429 1.000000 0.000000
0.628571 1.000000 0.000000
0.785714 1.000000 0.000000
0.942857 1.000000 0.000000
1.000000 1.000000 0.000000
0.000000 0.000000 0.128571
0.157143 0.000000 0.128571
0.314286 0.000000 0.128571
0.471429 0.000000 0.128571
0.628571 0.000000 0.128571
0.785714 0.000000 0.128571
0.942857 0.000000 0.128571
1.000000 0.000000 0.128571
0.000000 0.142857 0.128571
0.157143 0.142857 0.128571
0.314286 0.142857 0.128571
0.471429 0.142857 0.128571
0.628571 0.142857 0.128571
0.785714 0.142857 0.128571
0.942857 0.142857 0.128571
1.000000 0.142857 0.128571
0.000000 0.285714 0.128571
0.157143 0.285714 0.128571
0.314286 0.285714 0.128571
0.471429 0.285714 0.128571
0.628571 0.285714 0.128571
0.785714 0.285714 0.128571
0.942857 0.285714 0.128571
1.000000 0.285714 0.128571
0.000000 0.428571 0.128571
0.157143 0.428571 0.128571
0.314286 0.428571 0.128571
0.471429 0.428571 0.128571
0.628571 0.428571 0.128571
0.785714 0.428571 0.128571
0.942857 0.428571 0.128571
1.000000 0.428571 0.128571
0.000000 0.571429 0.128571
0.157143 0.571429 0.128571
0.314286 0.571429 0.128571
0.471429 0.571429 0.128571
0.628571 0.571429 0.128571
0.785714 0.571429 0.128571
0.942857 0.571429 0.128571
1.000000 0.571429 0.128571
0.000000 0.714286 0.128571
0.157143 0.714286 0.128571
0.314286 0.714286 0.128571
0.471429 0.714286 0.128571
0.628571 0.714286 0.128571
0.785714 0.714286 0.128571
0.942857 0.714286 0.128571
1.000000 0.714286 0.128571
0.000000 0.857143 0.128571
0.157143 0.857143 0.128571
0.314286 0.857143 0.128571
0.471429 0.857143 0.128571
0.628571 0.857143 0.128571
0.785714 0.857143 0.128571
0.942857 0.857143 0.128571
1.000000 0.857143 0.128571
0.000000 1.000000 0.128571
0.157143 1.000000 0.128571
0.314286 1.000000 0.128571
0.471429 1.000000 0.128571
0.628571 1.000000 0.128571
0.785714 1.000000 0.128571
0.942857 1.000000 0.128571
1.000000 1.000000 0.128571
0.000000 0.000000 0.257143
0.157143 0.000000 0.257143
0.314286 0.000000 0.257143
0.471429 0.000000 0.257143
0.628571 0.000000 0.257143
0.785714 0.000000 0.257143
0.942857 0.000000 0.257143
1.000000 0.000000 0.257143
0.000000 0.142857 0.257143
0.157143 0.142857 0.257143
0.314286 0.142857 0.257143
0.471429 0.142857 0.257143
0.628571 0.142857 0.257143
0.785714 0.142857 0.257143
0.942857 0.142857 0.257143
1.000000 0.142857 0.257143
0.000000 0.285714 0.257143
0.157143 0.285714 0.257143
0.314286 0.285714 0.257143
0.471429 0.285714 0.257143
0.628571 0.285714 0.257143
0.785714 0.285714 0.257143
0.942857 0.285714 0.257143
1.000000 0.285714 0.257143
0.000000 0.428571 0.257143
0.157143 0.428571 0.257143
0.314286 0.428571 0.257143
0.471429 0.428571 0.257143
0.628571 0.428571 0.257143
0.785714 0.428571 0.257143
0.942857 0.428571 0.257143
1.000000 0.428571 0.257143
0.000000 0.571429 0.257143
0.157143 0.571429 0.257143
0.314286 0.571429 0.257143
0.471429 0.571429 0.257143
0.628571 0.571429 0.257143
0.785714 0.571429 0.257143
0.942857 0.571429 0.257143
1.000000 0.571429 0.257143
0.000000 0.714286 0.257143
0.157143 0.714286 0.257143
0.314286 0.714286 0.257143
0.471429 0.714286 0.257143
0.628571 0.714286 0.257143
0.785714 0.714286 0.257143
0.942857 0.714286 0.257143
1.000000 0.714286 0.257143
0.000000 0.857143 0.257143
0.157143 0.857143 0.257143
0.314286 0.857143 0.257143
0.471429 0.857143 0.257143
0.628571 0.857143 0.257143
0.785714 0.857143 0.257143
0.942857 0.857143 0.257143
1.000000 0.857143 0.257143
0.000000 1.000000 0.257143
0.157143 1.000000 0.257143
0.314286 1.000000 0.257143
0.471429 1.000000 0.257143
0.628571 1.000000 0.257143
0.785714 1.000000 0.257143
0.942857 1.000000 0.257143
1.000000 1.000000 0.257143
0.000000 0.000000 0.385714
0.157143 0.000000 0.385714
0.314286 0.000000 0.385714
0.471429 0.000000 0.385714
0.628571 0.000000 0.385714
0.785714 0.000000 0.385714
0.942857 0.000000 0.385714
1.000000 0.000000 0.385714
0.000000 0.142857 0.385714
0.157143 0.142857 0.385714
0.314286 0.142857 0.385714
0.471429 0.142857 0.385714
0.628571 0.142857 0.385714
0.785714 0.142857 0.385714
0.942857 0.142857 0.385714
1.000000 0.142857 0.385714
0.000000 0.285714 0.385714
0.157143 0.285714 0.385714
0.314286 0.285714 0.385714
0.471429 0.285714 0.385714
0.628571 0.285714 0.385714
0.785714 0.285714 0.385714
0.942857 0.285714 0.385714
1.000000 0.285714 0.385714
0.000000 0.428571 0.385714
0.157143 0.428571 0.385714
0.314286 0.428571 0.385714
0.471429 0.428571 0.385714
0.628571 0.428571 0.385714
0.785714 0.428571 0.385714
0.942857 0.428571 0.385714
1.000000 0.428571 0.385714
0.000000 0.571429 0.385714
0.157143 0.571429 0.385714
0.314286 0.571429 0.385714
0.471429 0.571429 0.385714
0.628571 0.571429 0.385714
0.785714 0.571429 0.385714
0.942857 0.571429 0.385714
1.000000 0.571429 0.385714
0.000000 0.714286 0.385714
0.157143 0.714286 0.385714
0.314286 0.714286 0.385714
0.471429 0.714286 0.385714
0.628571 0.714286 0.385714
0.785714 0.714286 0.385714
0.942857 0.714286 0.385714
1.000000 0.714286 0.385714
0.000000 0.857143 0.385714
0.157143 0.857143 0.385714
0.314286 0.857143 0.385714
0.471429 0.857143 0.385714
0.628571 0.857143 0.385714
0.785714 0.857143 0.385714
0.942857 0.857143 0.385714
1.000000 0.857143 0.385714
0.000000 1.000000 0.385714
0.157143 1.000000 0.385714
0.314286 1.000000 0.385714
0.471429 1.000000 0.385714
0.628571 1.000000 0.385714
0.785714 1.000000 0.385714
0.942857 1.000000 0.385714
1.000000 1.000000 0.385714
0.000000 0.000000 0.514286
0.157143 0.000000 0.514286
0.314286 0.000000 0.514286
0.471429 0.000000 0.514286
0.628571 0.000000 0.514286
0.785714 0.000000 0.514286
0.942857 0.000000 0.514286
1.000000 0.000000 0.514286
0.000000 0.142857 0.514286
0.157143 0.142857 0.514286
0.314286 0.142857 0.514286
0.471429 0.142857 0.514286
0.628571 0.142857 0.514286
0.785714 0.142857 0.514286
0.942857 0.142857 0.514286
1.000000 0.142857 0.514286
0.000000 0.285714 0.514286
0.157143 0.285714 0.514286
0.314286 0.285714 0.514286
0.471429 0.285714 0.514286
0.628571 0.285714 0.514286
0.785714 0.285714 0.514286
0.942857 0.285714 0.514286
1.000000 0.285714 0.514286
0.000000 0.428571 0.514286
0.157143 0.428571 0.514286
0.314286 0.428571 0.514286
0.471429 0.428571 0.514286
0.628571 0.428571 0.514286
0.785714 0.428571 0.514286
0.942857 0.428571 0.514286
1.000000 0.428571 0.514286
0.000000 0.571429 0.514286
0.157143 0.571429 0.514286
0.314286 0.571429 0.514286
0.471429 0.571429 0.514286
0.628571 0.571429 0.514286
0.785714 0.571429 0.514286
0.942857 0.571429 0.514286
1.000000 0.571429 0.514286
0.000000 0.714286 0.514286
0.157143 0.714286 0.514286
0.314286 0.714286 0.514286
0.471429 0.714286 0.514286
0.628571 0.714286 0.514286
0.785714 0.714286 0.514286
0.942857 0.714286 0.514286
1.000000 0.714286 0.514286
0.000000 0.857143 0.514286
0.157143 0.857143 0.514286
0.314286 0.857143 0.514286
0.471429 0.857143 0.514286
0.628571 0.857143 0.514286
0.785714 0.857143 0.514286
0.942857 0.857143 0.514286
1.000000 0.857143 0.514286
0.000000 1.000000 0.514286
0.157143 1.000000 0.514286
0.314286 1.000000 0.514286
0.471429 1.000000 0.514286
0.628571 1.000000 0.514286
0.785714 1.000000 0.514286
0.942857 1.000000 0.514286
1.000000 1.000000 0.514286
0.000000 0.000000 0.642857
0.157143 0.000000 0.642857
0.314286 0.000000 0.642857
0.471429 0.000000 0.642857
0.628571 0.000000 0.642857
0.785714 0.000000 0.642857
0.942857 0.000000 0.642857
1.000000 0.000000 0.642857
0.000000 0.142857 0.642857
0.157143 0.142857 0.642857
0.314286 0.142857 0.642857
0.471429 0.142857 0.642857
0.628571 0.142857 0.642857
0.785714 0.142857 0.642857
0.942857 0.142857 0.642857
1.000000 0.142857 0.642857
0.000000 0.285714 0.642857
0.157143 0.285714 0.642857
0.314286 0.285714 0.642857
0.471429 0.285714 0.642857
0.628571 0.285714 0.642857
0.785714 0.285714 0.642857
0.942857 0.285714 0.642857
1.000000 0.285714 0.642857
0.000000 0.428571 0.642857
0.157143 0.428571 0.642857
0.314286 0.428571 0.642857
0.471429 0.428571 0.642857
0.628571 0.428571 0.642857
0.785714 0.428571 0.642857
0.942857 0.428571 0.642857
1.000000 0.428571 0.642857
0.000000 0.571429 0.642857
0.157143 0.571429 0.642857
0.314286 0.571429 0.642857
0.471429 0.571429 0.642857
0.628571 0.571429 0.642857
0.785714 0.571429 0.642857
0.942857 0.571429 0.642857
1.000000 0.571429 0.642857
0.000000 0.714286 0.642857
0.157143 0.714286 0.642857
0.314286 0.714286 0.642857
0.471429 0.714286 0.642857
0.628571 0.714286 0.642857
0.785714 0.714286 0.642857
0.942857 0.714286 0.642857
1.000000 0.714286 0.642857
0.000000 0.857143 0.642857
0.157143 0.857143 0.642857
0.314286 0.857143 0.642857
0.471429 0.857143 0.642857
0.628571 0.857143 0.642857
0.785714 0.857143 0.642857
0.942857 0.857143 0.642857
1.000000 0.857143 0.642857
0.000000 1.000000 0.642857
0.157143 1.000000 0.642857
0.314286 1.000000 0.642857
0.471429 1.000000 0.642857
0.628571 1.000000 0.642857
0.785714 1.000000 0.642857
0.942857 1.000000 0.642857
1.000000 1.000000 0.642857
0.000000 0.000000 0.771429
0.157143 0.000000 0.771429
0.314286 0.000000 0.771429
0.471429 0.000000 0.771429
0.628571 0.000000 0.771429
0.785714 0.000000 0.771429
0.942857 0.000000 0.771429
1.000000 0.000000 0.771429
0.000000 0.142857 0.771429
0.157143 0.142857 0.771429
0.314286 0.142857 0.771429
0.471429 0.142857 0.771429
0.628571 0.142857 0.771429
0.785714 0.142857 0.771429
0.942857 0.142857 0.771429
1.000000 0.142857 0.771429
0.000000 0.285714 0.771429
0.157143 0.285714 0.771429
0.314286 0.285714 0.771429
0.471429 0.285714 0.771429
0.628571 0.285714 0.771429
0.785714 0.285714 0.771429
0.942857 0.285714 0.771429
1.000000 0.285714 0.771429
0.000000 0.428571 0.771429
0.157143 0.428571 0.771429
0.314286 0.428571 0.771429
0.471429 0.428571 0.771429
0.628571 0.428571 0.771429
0.785714 0.428571 0.771429
0.942857 0.428571 0.771429
1.000000 0.428571 0.771429
0.000000 0.571429 0.771429
0.157143 0.571429 0.771429
0.314286 0.571429 0.771429
0.471429 0.571429 0.771429
0.628571 0.571429 0.771429
0.785714 0.571429 0.771429
0.942857 0.571429 0.771429
1.000000 0.571429 0.771429
0.000000 0.714286 0.771429
0.157143 0.714286 0.771429
0.314286 0.714286 0.771429
0.471429 0.714286 0.771429
0.628571 0.714286 0.771429
0.785714 0.714286 0.771429
0.942857 0.714286 0.771429
1.000000 0.714286 0.771429
0.000000 0.857143 0.771429
0.157143 0.857143 0.771429
0.314286 0.857143 0.771429
0.471429 0.857143 0.771429
0.628571 0.857143 0.771429
0.785714 0.857143 0.771429
0.942857 0.857143 0.771429
1.000000 0.857143 0.771429
0.000000 1.000000 0.771429
0.157143 1.000000 0.771429
0.314286 1.000000 0.771429
0.471429 1.000000 0.771429
0.628571 1.000000 0.771429
0.785714 1.000000 0.771429
0.942857 1.000000 0.771429
1.000000 1.000000 0.771429
0.000000 0.000000 0.900000
0.157143 0.000000 0.900000
0.314286 0.000000 0.900000
0.471429 0.000000 0.900000
0.628571 0.000000 0.900000
0.785714 0.000000 0.900000
0.942857 0.000000 0.900000
1.000000 0.000000 0.900000
0.000000 0.142857 0.900000
0.157143 0.142857 0.900000
0.314286 0.142857 0.900000
0.471429 0.142857 0.900000
0.628571 0.142857 0.900000
0.785714 0.142857 0.900000
0.942857 0.142857 0.900000
1.000000 0.142857 0.900000
0.000000 0.285714 0.900000
0.157143 0.285714 0.900000
0.314286 0.285714 0.900000
0.471429 0.285714 0.900000
0.628571 0.285714 0.900000
0.785714 0.285714 0.900000
0.942857 0.285714 0.900000
1.000000 0.285714 0.900000
0.000000 0.428571 0.900000
0.157143 0.428571 0.900000
0.314286 0.428571 0.900000
0.471429 0.428571 0.900000
0.628571 0.428571 0.900000
0.785714 0.428571 0.900000
0.942857 0.428571 0.900000
1.000000 0.428571 0.900000
0.000000 0.571429 0.900000
0.157143 0.571429 0.900000
0.314286 0.571429 0.900000
0.471429 0.571429 0.900000
0.628571 0.571429 0.900000
0.785714 0.571429 0.900000
0.942857 0.571429 0.900000
1.000000 0.571429 0.900000
0.000000 0.714286 0.900000
0.157143 0.714286 0.900000
0.314286 0.714286 0.900000
0.471429 0.714286 0.900000
0.628571 0.714286 0.900000
0.785714 0.714286 0.900000
0.942857 0.714286 0.900000
1.000000 0.714286 0.900000
0.000000 0.857143 0.900000
0.157143 0.857143 0.900000
0.314286 0.857143 0.900000
0.471429 0.857143 0.900000
0.628571 0.857143 0.900000
0.785714 0.857143 0.900000
0.942857 0.857143 0.900000
1.000000 0.857143 0.900000
0.000000 1.000000 0.900000
0.157143 1.000000 0.900000
0.314286 1.000000 0.900000
0.471429 1.000000 0.900000
0.628571 1.000000 0.900000
0.785714 1.000000 0.900000
0.942857 1.000000 0.900000
1.000000 1.000000 0.900000
